X:1
T:The Darktown Strutters' ball
T:Shelton Brooks
T:Norsk sangerforum www.sangerforum.no
T:Norsk sangerforum www.sangerforum.no
Z:Norsk sangerforum
Z:www.sangerforum.no
%%score [ 1 2 3 4 ]
L:1/8
M:2/2
K:Eb
V:1 treble-8 nm="Tenor"
V:2 treble-8 nm="Tenor"
V:3 bass nm="Baryton"
V:4 bass nm="Bass"
V:1
 z2 | z8 | z2 d3/2 d/ d2 z2 | z8 | z2 =e3/2 e/ !fermata!f2 d3/2 d/ | B2 e2 e3/2 e/ d3/2 d/ | %6
w: ||to a dance,||for to prance. I'll be|down to get you in a|
 e2 e2 =e e3 | e3/2 e/ e2 e3/2 e/ f2 | g f2 e- e2 (e2 | d) z d2 e2 f2 | f f2 f- f2 d3/2 d/ | %11
w: ta- xi, hon- ey,|bet- ter be read- y 'bout|half past eight. _ Oo|_ Now dear- ie,|don't be late, _ want to|
 B2 B2 g2 _g2 | f2 f2 e d2 z | z4 z2 ^f2 | g2 e2 =e e2 e | _e2 e2 e2 f3/2 f/ | g f2 e- e2 e =e | %17
w: be there when the|band starts play- ing.|we|get there, hon- ey, the|two steps, I'm goin' to|have 'em all, _ Goin' to|
 f2 e2 f e2 d- | d6 ^f3/2 f/ | g2 ^f g- g g =f2 | =e6 B2 | c2 d _e- e g2 e | f2 d2 c B3 | %23
w: dance out both my shoes|_ When they|play the "Jel- * ly Roll|Blues", To-|mor- row night _ at The|Dark- town Strut- ters'|
 !breath!e6 e2 | f2 f2 ^f f3 | !fermata!g8 |] %26
w: Ball. The|Dark- town Strut- ters'|Ball.|
V:2
 z2 | z8 | z2 B3/2 B/ B2 z2 | z8 | z2 ^c3/2 c/ d2 G3/2 F/ | E2 G2 B3/2 B/ c3/2 B/ | e2 c2 B G3 | %7
w: ||to a dance,||for to prance. I'll be|down to get you in a|ta- xi, hon- ey,|
 F3/2 F/ =A2 c3/2 c/ d2 | e d2 c- c2 (c2 | B) z B2 c2 d2 | e d2 c- c2 c3/2 B/ | e2 c2 e2 c2 | %12
w: bet- ter be read- y 'bout|half past eight. _ Oo|_ Now dear- ie,|don't be late, _ want to|be there when the|
 e2 d2 c B2 G | E2 G2 B2 c2 | e2 c2 B G2 G | F2 =A2 c2 d3/2 d/ | e d2 c- c2 c c | c2 c2 c c2 c- | %18
w: band starts play- ing. Re-|mem- ber when we|get there, hon- ey, the|two steps, I'm goin' to|have 'em all, _ Goin' to|dance out both my shoes|
 c6 c3/2 d/ | e2 d e- e B d2 | c6 B2 | c2 =B c- c e2 c | d2 f2 e d3 | !breath!B6 B2 | d2 d2 e e3 | %25
w: _ When they|play the "Jel- * ly Roll|Blues", To-|mor- row night _ at The|Dark- town Strut- ters'|Ball. The|Dark- town Strut- ters'|
 !fermata!e8 |] %26
w: Ball.|
V:3
 z2 | z8 | z2 F,3/2 F,/ F,2 z2 | z8 | z2 B,3/2 B,/ !fermata!B,2 B,3/2 B,/ | %5
w: ||to a dance,||for to prance. I'll be|
 G,2 G,2 G,3/2 G,/ A,3/2 A,/ | B,2 G,2 G, B,3 | =A,3/2 A,/ F,2 A,3/2 A,/ A,2 | %8
w: down to get you in a|ta- xi, hon- ey,|bet- ter be read- y 'bout|
 =A, A,2 A,- A,2 (A,2 | _A,) z A,2 B,2 B,2 | C B,2 A,- A,2 A,3/2 A,/ | B,2 G,2 B,2 =A,2 | %12
w: half past eight. _ Oo|_ Now dear- ie,|don't be late, _ want to|be there when the|
 C2 _A,2 A, A,2 G, | E,2 E,2 G,2 =A,2 | B,2 G,2 G, B,2 B, | =A,2 F,2 A,2 A,3/2 A,/ | %16
w: band starts play- ing. Re-|mem- ber when we|get there, hon- ey, the|two steps, I'm goin' to|
 =A, A,2 A,- A,2 _A, A, | A,2 A,2 A, A,2 =A,- | A,6 =A,3/2 A,/ | B,2 =A, B,- B, B, _C2 | B,6 B,2 | %21
w: have 'em all, _ Goin' to|dance out both my shoes|_ When they|play the "Jel- * ly Roll|Blues", To-|
 =A,2 ^G, A,- A, A,2 A, | _A,2 A,2 A, A,3 | !breath!G,6 G,2 | C2 C2 C _C3 | !fermata!B,8 |] %26
w: mor- row night _ at The|Dark- town Strut- ters'|Ball. The|Dark- town Strut- ters'|Ball.|
V:4
 D,3/2 C,/ | B,,2 D,2 F,3/2 F,/ G,3/2 F,/ | A,6 D,3/2 C,/ | B,,2 D,2 F,2 G,3/2 F,/ | %4
w: Got an|in- vi- ta- tion to a|dance, So get|rea- dy, quick for to|
 !fermata!A,6 B,3/2 B,/ | E,2 B,,2 E,3/2 E,/ F,3/2 F,/ | G,2 B,,2 C, C,3 | %7
w: prance. I'll be|down to get you in a|ta- xi, hon- ey,|
 C,3/2 C,/ C,2 F,3/2 F,/ F,2 | F, F,2 F,- F,2 (_G,2 | F,) z F,2 =G,2 A,2 | %10
w: bet- ter be read- y 'bout|half past eight. _ Oo|_ Now dear- ie,|
 A, A,2 B,,- B,,2 F,3/2 F,/ | G,2 E,2 E,2 E,2 | A,2 B,2 B,, B,,2 G, | E,2 B,,2 E,2 E,2 | %14
w: don't be late, _ want to|be there when the|band starts play- ing. Re-|mem- ber when we|
 E,2 B,,2 C, C,2 C, | C,2 C,2 F,2 F,3/2 F,/ | F, F,2 F,- F,2 E, _F, | F,2 A,,2 C, F,2 ^F,- | %18
w: get there, hon- ey, the|two steps, I'm goin' to|have 'em all, _ Goin' to|dance out both my shoes|
 F,6 D,3/2 D,/ | E,2 E, E,- E, E, G,2 | (G,2 C,4) z2 | F,2 F, F,- F, F,2 F, | B,,2 B,,2 F, B,,3 | %23
w: _ When they|play the "Jel- * ly Roll|Blues", _|\-mor- row night _ at The|Dark- town Strut- ters'|
 !breath!E,6 E,2 | A,2 A,2 A, A,3 | !fermata!E,8 |] %26
w: Ball. The|Dark- town Strut- ters'|Ball.|

